X:1
T: Billy the Barber Shaved his Father
C:
R:Jig
Q:180
K:G
M:6/8
L:1/16
|:c2|B2c2A2 G4D2|E4D2 G4c2|B2c2A2 G4A2|B2d2d2 e2d2c2|
B2c2A2 G4D2|E4D2 G4c2|B4c2 A4c2|B2G2G2 G4:|
|:A2|B4B2 B2c2A2|B4d2 d2e2f2|g4f2 e4d2|d2c2B2 A2B2c2|
B4B2 B2c2A2|B4d2 d2e2f2|g4e2 a4g2|f2d2d2 d4:|
